X:346
T:Swiss Boy, The
R:hp 32 schottische
C:Ignaz Moscheles ed. Barry Callaghan
S:'Hard Core English' page 51A
O:England
Q:1/4=140
B:Hard Core English ISBN 978 085418 201 5
Z:PJHeadford 2008
M:4/4
L:1/8
Q:1/4=180
K:D
|:FG|A2FG A2FG|A2fe d2FA|G2ed cABc|d2e2 f2FG|
A2FG A2FG|A2fe d2FA|G2ed cABc|d4 d2:|
|:FA|G2GF G2AG|FAde f2FA|G2GF G2AG|FAde f2FG|
A2FG A2FG|A2fe d2FA|G2ed cABc|d4 d2:|]
W:Air from Tyrolese Melodies by Ignaz Moscheles. In many MSs.

